!!!COM: Palestrina, Giovanni Perluigi da
!!!OPR: Missa Ad fugam
!!!OTL: Kyrie
**kern	**kern	**kern	**kern
*Ibass	*Itenor	*Icalto	*Icant
!Bassus	!Tenor	!Altus	!Cantus
*clefF4	*clefGv2	*clefG2	*clefG2
*k[]	*k[]	*k[]	*k[]
*G:mix	*G:mix	*G:mix	*G:mix
*M4/2	*M4/2	*M4/2	*M4/2
=1	=1	=1	=1
0r	0r	1d	1r
.	.	1e	1g
=2	=2	=2	=2
0r	0r	1d	1a
.	.	1g	1g
=3	=3	=3	=3
0r	0r	2f	1cc
.	.	2e	.
.	.	4d	2b
.	.	4e	.
.	.	4f	2a
.	.	4d	.
=4	=4	=4	=4
0r	0r	4e	4g
.	.	4f	4a
.	.	2g	4b
.	.	.	4g
.	.	2f	4a
.	.	.	4b
.	.	[2e	2cc
=5	=5	=5	=5
1D	1r	4e]	2b
.	.	4d	.
.	.	1d	2.a
1E	1G	.	.
.	.	.	4g
.	.	2c#	[2g
=6	=6	=6	=6
1D	1A	1d	2g]
.	.	.	2f#
1G	1G	1r	1g
=7	=7	=7	=7
2F	1c	0r	0r
2E	.	.	.
4D	2B	.	.
4E	.	.	.
4F	2A	.	.
4D	.	.	.
=8	=8	=8	=8
4E	4G	0r	0r
4F	4A	.	.
1G	4B	.	.
.	4G	.	.
.	4A	.	.
.	4B	.	.
2F	[2c	.	.
=9	=9	=9	=9
1G	2c]	1d	1r
.	2B	.	.
1C	1c	2e	1g
.	.	2e	.
=10	=10	=10	=10
1r	1F	1f	2a
.	.	.	2a
1G	1r	1g	1b
=11	=11	=11	=11
2A	1c	0r	1cc
2A	.	.	.
1B	2d	.	1r
.	2d	.	.
=12	=12	=12	=12
1c	1e	1g	1r
1r	1f	2a	1cc
.	.	2a	.
=13	=13	=13	=13
1r	0r	1b	2dd
.	.	.	2dd
1c	.	1cc	1ee
=14	=14	=14	=14
2d	1f	1a	1ff
2d	.	.	.
1G	2g	2g	1dd
.	2g	2b	.
=15	=15	=15	=15
1A	1c	4cc	2cc
.	.	4b	.
.	.	4a	2ee
.	.	4g	.
1D	1d	2f	4ff
.	.	.	4ee
.	.	2a	4dd
.	.	.	4cc
=16	=16	=16	=16
2r	1G	2.g	2b
2G	.	.	2dd
.	.	4f	.
2A	2r	2e	2.cc
2E	2c	2g	.
.	.	.	4b
=17	=17	=17	=17
1F	2d	2.f	2a
.	2A	.	2cc
.	.	4e	.
1G	1B	2d	2.b
.	.	4g	.
.	.	4f	4a
=18	=18	=18	=18
1C	1c	4e	2g
.	.	4d	.
.	.	2.e	4cc
.	.	.	4b
1D	1F	.	4a
.	.	4d	4g
.	.	[2d	[2a
=19	=19	=19	=19
1E	1G	2d]	4a]
.	.	.	4g
.	.	2c#	1g
1D	1A	1d	.
.	.	.	2f#
=20	=20	=20	=20
[0G	[0G	[0d	[0g
=21	=21	=21	=21
0G]	0G]	0d]	0g]
==	==	==	==
*-	*-	*-	*-
!!!CDT: 1525/^1526/-1594/2/2
!!!OCY: Italia
!!!AGN: Mass (Canonic)
!!!AST: renaissance, vocal
!!!ASW: Motet (Maffoni)
!!!PWK: Masses, Book 2
!!!RNB: Cadence finals: C
!!!YOR: Le Opere Complete, v. 4, p. 74
!!!YOO: Rome, Italy: Fratelli Scalera
!!!END: 1992//
!!!EED: John Miller
!!!YEC: Copyright 2000, John Miller
!!!YEN: United States of America
!!!YEM: Rights to all derivative electronic formats reserved.
!!!YEM: Refer to licensing agreement for further details.
!!!YEM: This file must be accompanied by the licensing agreement.
!!!YEM: A copy of the licensing agreement may be found at http://www.music-cog.ohio-state.edu/HumdrumDatabases/Palestrina/license.txt
!!!EMD: converted to Humdrum by Bret Aarden
